!!!OTL: ET GIENG EN PATF[ERK2E
!!!ARE: Europa, Mitteleuropa, Deutschland, Niederrhein
!!!SCT: E0977
!!!YEM: Copyright 1995, estate of Helmut Schaffrath.
**kern
*ICvox
*Ivox
*M2/4
*k[]
*C:
{8G
=1
8c
8e
8d
8c
=2
8B
8A
4G}
=3
{8.A
16G
8A
8B
=4
4c
8r}
{8G
=5
8c
8e
8d
8c
=6
8B
8A
4G}
=7
{8.A
16G
8A
8B
=8
4c
8r}
{8c
=9
8d
8d
8d
8e
=10
8f
8e
4d}
=11
{8e
8c
16c
16B
8c
=12
8d
8B
4G}
=13
{8.A
16G
8A
8B
=14
4c
8r}
==
!!!AGN: Tanz - Lied, Reigen
!!!ONB: ESAC (Essen Associative Code) Database: ERK2
!!!AMT: simple duple
!!!AIN: vox
!!!EED: Helmut Schaffrath
!!!EEV: 1.0
*-
